X:1
T:RSB, The
C:Andy Cutting
S:Blowzabella tune book printed 2004
R: jig
M:6/8
L: 1/8
K: Emin
Z: JH via thesession.org
r:32
|:"Em"E2E EFG|"Em"F2 E EFG|"Em"E2 E EFG|"Em"GFE E2D|
"C"EFG GFE|"D"F2 A AGF|1"D" F2 A AGF|"Bm"BcB AGF:|2 "D"BcB AGF|"Bm"E6|
|:"Em"e3 "D/F#"d3|"G"B3 BdB|"A"A2 A ABA|"C"G2 F E2 D|
"Em"e3 "D/F#"d3|"G"B3 BdB|"A"ABA G2 F|1 "C"E3 E2 D:|2 "C"E6|
